X:1
T:Title
%%score { 1 | ( 2 3 ) }
L:1/8
M:4/4
K:Db
V:1 treble nm="Grand Piano"
V:2 bass 
V:3 bass 
V:1
 z4 z2[Q:1/4=100] A2 | d3 A F2 D2 | F2 G2 A3 A | B2 A2 G2 F2 |[M:3/4] [CE]6 |[M:1/4] [CE]2 | %6
[M:4/4] F3 G A2 A2 | d2 c2 B3 B | [=GB]3 [GB] [Gc]2 [Gd]2 |[M:5/4] e4 A6 |[M:4/4] d2 d>d A2 B>A | %11
 A4 G4 | C2 C>D E2 C2 | D4 A,4 | [Af]2 [Af]>[Ae] [Ad]2 [Ad]>[Ad] | e4 B4 | A d2 d c2 e2 | %17
[M:3/4] [Fd]6 |] %18
V:2
 z4 z2 A,2 | D3 A, F,2 D,2 | [D,A,D]2 [E,A,C]2 [F,A,D]3 [F,A,D] | %3
 [G,D]2 [F,A,D]2 [E,A,C]2 [D,A,D]2 |[M:3/4] [A,,A,]6 |[M:1/4] [A,,A,]2 | %6
[M:4/4] [D,A,D]3 [E,A,D] [F,A,D]2 [F,A,D]2 | [F,=A,E]2 [F,A,E]2 [G,B,D]3 [G,DG] | %8
 [E,D]3 [E,D] [E,E]2 [E,D]2 |[M:5/4][K:treble] A4 z2 z4 |[M:4/4] F2 F>F F2 G>F | F4 E4 | %12
 A,2 A,>A, G,2 G,2 | F,8 | [D,D]2 [D,D]>[E,C] [F,D]2 [F,_C]>[F,C] | [G,B,G]4 [G,DG]4 | %16
 [A,DF] [A,DF]2 [A,DF] [A,EG]2 [A,CG]2 |[M:3/4][K:bass] [D,A,]6 |] %18
V:3
 x8 | x8 | x8 | x8 |[M:3/4] x6 |[M:1/4] x2 |[M:4/4] x8 | x8 | x8 | %9
[M:5/4][K:treble] [A,C]2- [A,C]2- [A,C]6 |[M:4/4] x8 | x8 | x8 | x8 | x8 | x8 | x8 | %17
[M:3/4][K:bass] x6 |] %18

